Sources/FrostedUI/Resources/Icons.xcassets/discordSize12.imageset/discord-size-12.svg

<svg
  width="12"
  height="12"
  viewBox="0 0 12 12"
  fill="none"
  xmlns="http://www.w3.org/2000/svg"
  data-fui-icon="true"
>
  <path
    d="M9.33207 2.95539C8.70135 2.66511 8.0355 2.45916 7.3515 2.34283C7.2579 2.51103 7.17325 2.68408 7.0978 2.86127C6.36925 2.7509 5.62835 2.7509 4.8998 2.86127C4.82433 2.68411 4.73965 2.51105 4.64609 2.34283C3.96168 2.46015 3.29539 2.66658 2.66403 2.95691C1.41061 4.82116 1.07083 6.63909 1.24072 8.43123C1.97475 8.97643 2.79634 9.39106 3.66978 9.65711C3.86646 9.39119 4.04049 9.10912 4.19003 8.81379C3.906 8.70715 3.63186 8.57558 3.37077 8.42063C3.43949 8.37054 3.50669 8.31891 3.57162 8.26882C4.3313 8.62795 5.16043 8.81414 5.99995 8.81414C6.83943 8.81414 7.66856 8.62795 8.42823 8.26882C8.49395 8.32271 8.56115 8.37433 8.62909 8.42063C8.36753 8.57584 8.09288 8.70767 7.80833 8.81458C7.9577 9.10973 8.13172 9.39158 8.32856 9.65711C9.20277 9.39215 10.025 8.97769 10.7592 8.43202C10.9585 6.35371 10.4186 4.55245 9.33207 2.95539Z"
    stroke="currentColor"
  />
  <path
    d="M3.5415 6.3658C3.5415 6.89716 3.93263 7.32907 4.40606 7.32907 4.88855 7.32907 5.26154 6.89716 5.26988 6.3658 5.27817 5.83448 4.89006 5.39877 4.40455 5.39877 3.91904 5.39877 3.5415 5.83448 3.5415 6.3658zM6.7317 6.3658C6.7317 6.89716 7.12128 7.32907 7.59548 7.32907 8.07797 7.32907 8.45023 6.89716 8.45852 6.3658 8.46685 5.83448 8.08176 5.39877 7.59548 5.39877 7.1092 5.39877 6.7317 5.83448 6.7317 6.3658z"
    fill="currentColor"
  />
</svg>

<svg xmlns="http://www.w3.org/2000/svg" width="12" height="12" fill="none" data-fui-icon="true" viewBox="0 0 12 12"><path stroke="currentColor" d="M9.332 2.955a8 8 0 0 0-1.98-.612 6 6 0 0 0-.254.518 7.3 7.3 0 0 0-2.198 0 6 6 0 0 0-.254-.518 8 8 0 0 0-1.982.614C1.411 4.82 1.071 6.639 1.241 8.43c.734.545 1.555.96 2.429 1.226a6 6 0 0 0 .52-.843 5 5 0 0 1-.82-.393q.105-.076.202-.152a5.68 5.68 0 0 0 4.856 0q.099.081.201.152a5 5 0 0 1-.82.394q.224.444.52.842a7.9 7.9 0 0 0 2.43-1.225c.2-2.078-.34-3.88-1.427-5.477Z"/><path fill="currentColor" d="M3.542 6.366c0 .531.39.963.864.963.483 0 .856-.432.864-.963.008-.532-.38-.967-.865-.967-.486 0-.864.435-.864.967m3.19 0c0 .531.39.963.863.963.483 0 .855-.432.864-.963.008-.532-.377-.967-.864-.967-.486 0-.863.435-.863.967"/></svg>
